X:33
T:Stonehaven March, The 
C:Joe Buchanan's Scottish Tome - Page 058.1
I:058 1
R:Hornpipe
Z:Carl Allison
L:1/8
M:4/4
K:Dmaj
A2 | "D"d2 d>d d2 e/d/c/B/ | "D"A>BAF D2 D>F | "G"G2 B>G F2 "D"A>F | "A7"E2 E>E E2 A2 |
"D"d2 d>d d2 e/d/c/B/ | "D"A>BAF D2 D>F | "D"FAGF "A7"EGFE | D2 "D"D>D D2 :|
c>d | "A7"e2 A>A Aceg | "D"f2 d>d d2 c>d | "A7"e2 A>A A>ce>g | "D"f2 d>d d2 A2 |
"D"d2 d>d "G"edcB | "A7"Acec "Em"BAGE | "D"FAGF "A7"EGFE | D2 "D"D>D D2 :|

